X: 10961
M: 2/4
L: 1/16
K: C
|:\
c4 c4 | c2e2G2B2 | c2e2G2B2 | {d/}cBcd c4 |\
a4 f2a2 | (ag^fg) (=fedc) | B2c2(f2e2) | {e/}(d^cde) d4 :|
|:\
|:\


